svgs/sharp-solid/signal.svg

<svg xmlns="http://www.w3.org/2000/svg" viewBox="0 0 640 512"><!--! Font Awesome Pro 6.6.0 by @fontawesome - https://fontawesome.com License - https://fontawesome.com/license (Commercial License) Copyright 2024 Fonticons, Inc. --><path d="M608 0l0 32 0 448 0 32-64 0 0-32 0-448 0-32 64 0zM480 96l0 32 0 352 0 32-64 0 0-32 0-352 0-32 64 0zM352 224l0 256 0 32-64 0 0-32 0-256 0-32 64 0 0 32zM224 288l0 32 0 160 0 32-64 0 0-32 0-160 0-32 64 0zM96 416l0 64 0 32-64 0 0-32 0-64 0-32 64 0 0 32z"/></svg>

<svg xmlns="http://www.w3.org/2000/svg" viewBox="0 0 640 512"><!--! Font Awesome Pro 6.4.0 by @fontawesome - https://fontawesome.com License - https://fontawesome.com/license (Commercial License) Copyright 2023 Fonticons, Inc. --><path d="M608 0V32 480v32H544V480 32 0h64zM480 96v32V480v32H416V480 128 96h64zM352 224V480v32H288V480 224 192h64v32zM224 288v32V480v32H160V480 320 288h64zM96 416v64 32H32V480 416 384H96v32z"/></svg>
